X: 7
M: 6/8
L: 1/8
K: D
|:\
d2d a2a | Tfef d3 | D2D E2F | G2A F>ED |\
d2d a2a | Tfef d3 | D2D E2F | G2A D3 :|
|:\
d2d a2a | d'c'b a3 | A2A g2g | b>ag {g}f3 |\


